;FLAVOR:Marlin
;TIME:7494
;Filament used: 5.07741m
;Layer height: 0.2
;MINX:69.196
;MINY:79.779
;MINZ:0.2
;MAXX:164.428
;MAXY:135.379
;MAXZ:15
;Generated with Cura_SteamEngine 4.9.1
M140 S60
M105
M190 S60
M104 S200
M105
M109 S200
M82 ;absolute extrusion mode
; Ender 3 Custom Start G-code
G92 E0 ; Reset Extruder
G28 ; Home all axes
G1 Z2.0 F3000 ; Move Z Axis up little to prevent scratching of Heat Bed
G1 X0.1 Y20 Z0.3 F5000.0 ; Move to start position
G1 X0.1 Y200.0 Z0.3 F1500.0 E15 ; Draw the first line
G1 X0.4 Y200.0 Z0.3 F5000.0 ; Move to side a little
G1 X0.4 Y20 Z0.3 F1500.0 E30 ; Draw the second line
G92 E0 ; Reset Extruder
G1 Z2.0 F3000 ; Move Z Axis up little to prevent scratching of Heat Bed
G1 X5 Y20 Z0.3 F5000.0 ; Move over to prevent blob squish
G92 E0
G92 E0
G1 F1500 E-6.5
;LAYER_COUNT:75
;LAYER:0
M107
G0 F6000 X74.547 Y84.537 Z0.2
;TYPE:SKIRT
G1 F1500 E0
G1 F1200 X75.161 Y84.041 E0.02625
G1 X75.822 Y83.609 E0.05252
G1 X76.523 Y83.246 E0.07877
G1 X77.258 Y82.956 E0.10505
G1 X78.018 Y82.742 E0.13131
G1 X78.796 Y82.606 E0.15758
G1 X79.751 Y82.547 E0.18941
G1 X109.643 Y82.547 E1.18362
G1 X110.432 Y82.587 E1.20989
G1 X111.212 Y82.706 E1.23614
G1 X111.977 Y82.904 E1.26242
G1 X112.452 Y83.08 E1.27927
G1 X112.56 Y82.972 E1.28435
G1 X112.85 Y82.709 E1.29737
G1 X113.461 Y82.209 E1.32363
G1 X113.777 Y81.976 E1.33669
G1 X114.387 Y81.569 E1.36108
G1 X114.723 Y81.367 E1.37412
G1 X115.397 Y81.006 E1.39955
G1 X115.753 Y80.837 E1.41265
G1 X116.477 Y80.537 E1.43872
G1 X116.847 Y80.405 E1.45179
G1 X117.534 Y80.195 E1.47568
G1 X117.913 Y80.098 E1.48869
G1 X118.741 Y79.933 E1.51677
G1 X119.132 Y79.877 E1.52991
G1 X119.64 Y79.821 E1.54691
G1 X119.835 Y79.806 E1.55341
G1 X120.349 Y79.783 E1.57052
G1 X120.721 Y79.779 E1.5829
G1 X152.629 Y79.779 E2.64416
G1 X153.007 Y79.788 E2.65674
G1 X153.399 Y79.807 E2.66979
G1 X154.152 Y79.88 E2.69495
G1 X154.541 Y79.937 E2.70803
G1 X155.316 Y80.091 E2.73431
G1 X155.697 Y80.187 E2.74738
G1 X156.418 Y80.407 E2.77245
G1 X156.787 Y80.539 E2.78549
G1 X157.496 Y80.832 E2.811
G1 X157.849 Y80.999 E2.82399
G1 X158.523 Y81.36 E2.84942
G1 X158.86 Y81.562 E2.86249
G1 X159.488 Y81.981 E2.8876
G1 X159.803 Y82.214 E2.90063
G1 X160.407 Y82.709 E2.9266
G1 X160.699 Y82.974 E2.93972
G1 X161.244 Y83.52 E2.96538
G1 X161.507 Y83.811 E2.97842
G1 X161.981 Y84.39 E3.00331
G1 X162.215 Y84.705 E3.01636
G1 X162.649 Y85.355 E3.04236
G1 X162.851 Y85.693 E3.05545
G1 X163.203 Y86.35 E3.08024
G1 X163.371 Y86.704 E3.09328
G1 X163.67 Y87.427 E3.1193
G1 X163.802 Y87.797 E3.13237
G1 X164.012 Y88.484 E3.15626
G1 X164.109 Y88.863 E3.16927
G1 X164.274 Y89.688 E3.19725
G1 X164.33 Y90.078 E3.21036
G1 X164.4 Y90.809 E3.23478
G1 X164.419 Y91.201 E3.24784
G1 X164.428 Y91.579 E3.26041
G1 X164.428 Y123.579 E4.32474
G1 X164.419 Y123.957 E4.33731
G1 X164.4 Y124.349 E4.35037
G1 X164.327 Y125.102 E4.37553
G1 X164.27 Y125.491 E4.3886
G1 X164.118 Y126.256 E4.41455
G1 X164.023 Y126.635 E4.42754
G1 X163.797 Y127.377 E4.45334
G1 X163.664 Y127.747 E4.46642
G1 X163.378 Y128.437 E4.49126
G1 X163.211 Y128.791 E4.50428
G1 X162.847 Y129.473 E4.52999
G1 X162.645 Y129.81 E4.54306
G1 X162.214 Y130.455 E4.56886
G1 X161.979 Y130.771 E4.58196
G1 X161.507 Y131.346 E4.6067
G1 X161.244 Y131.637 E4.61975
G1 X160.697 Y132.185 E4.6455
G1 X160.407 Y132.448 E4.65852
G1 X159.805 Y132.941 E4.6844
G1 X159.49 Y133.174 E4.69743
G1 X158.868 Y133.59 E4.72232
G1 X158.53 Y133.793 E4.73543
G1 X157.843 Y134.16 E4.76134
G1 X157.487 Y134.328 E4.77443
G1 X156.785 Y134.618 E4.79969
G1 X156.416 Y134.75 E4.81273
G1 X155.718 Y134.964 E4.83701
G1 X155.338 Y135.061 E4.85006
G1 X154.518 Y135.224 E4.87786
G1 X154.128 Y135.28 E4.89097
G1 X153.417 Y135.349 E4.91473
G1 X153.026 Y135.369 E4.92775
G1 X152.628 Y135.379 E4.94099
G1 X120.629 Y135.379 E6.00528
G1 X120.233 Y135.369 E6.01846
G1 X119.84 Y135.349 E6.03154
G1 X119.102 Y135.276 E6.05621
G1 X118.714 Y135.219 E6.06925
G1 X117.947 Y135.067 E6.09526
G1 X117.565 Y134.971 E6.10836
G1 X116.832 Y134.748 E6.13384
G1 X116.464 Y134.616 E6.14685
G1 X115.761 Y134.324 E6.17216
G1 X115.406 Y134.156 E6.18523
G1 X114.739 Y133.8 E6.21037
G1 X114.403 Y133.599 E6.2234
G1 X113.765 Y133.173 E6.24891
G1 X113.449 Y132.939 E6.26199
G1 X113.16 Y132.702 E6.27442
G1 X112.586 Y132.97 E6.29549
G1 X111.841 Y133.231 E6.32175
G1 X111.073 Y133.415 E6.34801
G1 X110.291 Y133.52 E6.37426
G1 X109.642 Y133.547 E6.39586
G1 X79.75 Y133.547 E7.39007
G1 X78.961 Y133.507 E7.41635
G1 X78.181 Y133.388 E7.44259
G1 X77.416 Y133.19 E7.46887
G1 X76.676 Y132.916 E7.49512
G1 X75.967 Y132.568 E7.52139
G1 X75.296 Y132.15 E7.54768
G1 X74.672 Y131.667 E7.57393
G1 X74.099 Y131.124 E7.60018
G1 X73.584 Y130.525 E7.62646
G1 X73.133 Y129.877 E7.65272
G1 X73.038 Y129.706 E7.65922
G1 X72.559 Y129.409 E7.67797
G1 X71.933 Y128.928 E7.70423
G1 X71.359 Y128.385 E7.73051
G1 X70.843 Y127.788 E7.75675
G1 X70.39 Y127.141 E7.78302
G1 X70.004 Y126.452 E7.80929
G1 X69.691 Y125.727 E7.83555
G1 X69.452 Y124.974 E7.86183
G1 X69.29 Y124.201 E7.8881
G1 X69.207 Y123.416 E7.91435
G1 X69.196 Y122.994 E7.92839
G1 X69.196 Y93.102 E8.9226
G1 X69.236 Y92.313 E8.94888
G1 X69.355 Y91.533 E8.97512
G1 X69.553 Y90.768 E9.00141
G1 X69.827 Y90.028 E9.02765
G1 X70.175 Y89.319 E9.05392
G1 X70.593 Y88.648 E9.08021
G1 X71.076 Y88.024 E9.10646
G1 X71.619 Y87.451 E9.13272
G1 X72.218 Y86.936 E9.15899
G1 X72.866 Y86.485 E9.18525
G1 X73.047 Y86.36 E9.19256
G1 X73.484 Y85.703 E9.21881
G1 X73.986 Y85.093 E9.24508
G1 X74.547 Y84.537 E9.27135
G0 F6000 X75.087 Y84.601
G1 F1200 X75.709 Y84.148 E9.29695
G1 X76.374 Y83.762 E9.32252
G1 X77.076 Y83.447 E9.34811
G1 X77.807 Y83.207 E9.3737
G1 X78.558 Y83.044 E9.39926
G1 X79.323 Y82.959 E9.42486
G1 X79.751 Y82.947 E9.4391
G1 X109.643 Y82.947 E10.43332
G1 X110.411 Y82.987 E10.45889
G1 X111.171 Y83.106 E10.48448
G1 X111.914 Y83.304 E10.51006
G1 X112.55 Y83.547 E10.5327
G1 X112.829 Y83.268 E10.54582
G1 X113.119 Y83.005 E10.55884
G1 X113.698 Y82.531 E10.58373
G1 X114.014 Y82.298 E10.59679
G1 X114.593 Y81.912 E10.61994
G1 X114.929 Y81.71 E10.63298
G1 X115.569 Y81.367 E10.65713
G1 X115.925 Y81.198 E10.67023
G1 X116.611 Y80.913 E10.69494
G1 X116.981 Y80.781 E10.70801
G1 X117.633 Y80.582 E10.73068
G1 X118.012 Y80.485 E10.74369
G1 X118.798 Y80.329 E10.77034
G1 X119.189 Y80.273 E10.78348
G1 X119.67 Y80.22 E10.79958
G1 X119.865 Y80.205 E10.80608
G1 X120.353 Y80.183 E10.82233
G1 X120.725 Y80.179 E10.8347
G1 X152.629 Y80.179 E11.89583
G1 X152.987 Y80.188 E11.90774
G1 X153.379 Y80.207 E11.9208
G1 X154.094 Y80.276 E11.94469
G1 X154.483 Y80.333 E11.95777
G1 X155.218 Y80.479 E11.98269
G1 X155.599 Y80.575 E11.99576
G1 X156.283 Y80.783 E12.01954
G1 X156.652 Y80.915 E12.03257
G1 X157.325 Y81.194 E12.0568
G1 X157.678 Y81.361 E12.06979
G1 X158.317 Y81.703 E12.0939
G1 X158.654 Y81.905 E12.10696
G1 X159.251 Y82.303 E12.13083
G1 X159.566 Y82.536 E12.14386
G1 X160.138 Y83.005 E12.16846
G1 X160.43 Y83.27 E12.18158
G1 X160.947 Y83.788 E12.20592
G1 X161.21 Y84.079 E12.21896
G1 X161.66 Y84.628 E12.24257
G1 X161.894 Y84.943 E12.25563
G1 X162.306 Y85.56 E12.2803
G1 X162.508 Y85.898 E12.2934
G1 X162.841 Y86.521 E12.31689
G1 X163.009 Y86.875 E12.32993
G1 X163.294 Y87.561 E12.35463
G1 X163.426 Y87.931 E12.3677
G1 X163.625 Y88.583 E12.39037
G1 X163.722 Y88.962 E12.40339
G1 X163.878 Y89.745 E12.42994
G1 X163.934 Y90.135 E12.44304
G1 X164 Y90.829 E12.46623
G1 X164.019 Y91.221 E12.47928
G1 X164.028 Y91.579 E12.49119
G1 X164.028 Y123.579 E13.55552
G1 X164.019 Y123.937 E13.56743
G1 X164 Y124.329 E13.58048
G1 X163.931 Y125.044 E13.60437
G1 X163.874 Y125.433 E13.61745
G1 X163.73 Y126.159 E13.64207
G1 X163.635 Y126.538 E13.65506
G1 X163.421 Y127.242 E13.67954
G1 X163.288 Y127.612 E13.69261
G1 X163.017 Y128.266 E13.71616
G1 X162.85 Y128.62 E13.72918
G1 X162.504 Y129.267 E13.75358
G1 X162.302 Y129.604 E13.76665
G1 X161.893 Y130.216 E13.79113
G1 X161.658 Y130.532 E13.80423
G1 X161.21 Y131.078 E13.82772
G1 X160.947 Y131.369 E13.84077
G1 X160.428 Y131.889 E13.8652
G1 X160.138 Y132.152 E13.87822
G1 X159.568 Y132.619 E13.90273
G1 X159.253 Y132.852 E13.91576
G1 X158.662 Y133.247 E13.93941
G1 X158.324 Y133.45 E13.95252
G1 X157.672 Y133.798 E13.9771
G1 X157.316 Y133.966 E13.99019
G1 X156.65 Y134.242 E14.01417
G1 X156.281 Y134.374 E14.02721
G1 X155.619 Y134.576 E14.05023
G1 X155.239 Y134.673 E14.06327
G1 X154.461 Y134.828 E14.08966
G1 X154.071 Y134.884 E14.10276
G1 X153.397 Y134.949 E14.12528
G1 X153.006 Y134.969 E14.1383
G1 X152.628 Y134.979 E14.15088
G1 X120.629 Y134.979 E15.21517
G1 X120.253 Y134.969 E15.22768
G1 X119.86 Y134.949 E15.24077
G1 X119.16 Y134.88 E15.26417
G1 X118.772 Y134.823 E15.27721
G1 X118.044 Y134.679 E15.30189
G1 X117.662 Y134.583 E15.31499
G1 X116.968 Y134.371 E15.33913
G1 X116.6 Y134.239 E15.35213
G1 X115.933 Y133.963 E15.37614
G1 X115.578 Y133.795 E15.3892
G1 X114.944 Y133.456 E15.41311
G1 X114.608 Y133.255 E15.42614
G1 X114.003 Y132.852 E15.45031
G1 X113.687 Y132.618 E15.46339
G1 X113.205 Y132.222 E15.48414
G1 X112.756 Y132.46 E15.50104
G1 X112.042 Y132.747 E15.52664
G1 X111.303 Y132.958 E15.5522
G1 X110.545 Y133.092 E15.5778
G1 X109.642 Y133.147 E15.60789
G1 X79.75 Y133.147 E16.6021
G1 X78.982 Y133.107 E16.62768
G1 X78.222 Y132.988 E16.65327
G1 X77.479 Y132.79 E16.67884
G1 X76.76 Y132.516 E16.70443
G1 X76.074 Y132.169 E16.73
G1 X75.427 Y131.753 E16.75559
G1 X74.827 Y131.272 E16.78116
G1 X74.28 Y130.731 E16.80675
G1 X73.792 Y130.136 E16.83235
G1 X73.369 Y129.494 E16.85792
G1 X73.327 Y129.413 E16.86095
G1 X73.181 Y129.335 E16.86646
G1 X72.543 Y128.905 E16.89205
G1 X71.954 Y128.41 E16.91764
G1 X71.419 Y127.858 E16.9432
G1 X70.944 Y127.253 E16.96879
G1 X70.535 Y126.602 E16.99436
G1 X70.195 Y125.911 E17.01997
G1 X69.929 Y125.19 E17.04553
G1 X69.74 Y124.444 E17.07113
G1 X69.628 Y123.683 E17.09671
G1 X69.596 Y122.994 E17.11965
G1 X69.596 Y93.102 E18.11387
G1 X69.636 Y92.334 E18.13944
G1 X69.755 Y91.574 E18.16503
G1 X69.953 Y90.831 E18.1906
G1 X70.227 Y90.112 E18.2162
G1 X70.574 Y89.426 E18.24177
G1 X70.99 Y88.779 E18.26735
G1 X71.471 Y88.179 E18.29293
G1 X72.012 Y87.632 E18.31851
G1 X72.607 Y87.144 E18.34411
G1 X73.249 Y86.721 E18.36968
G1 X73.338 Y86.675 E18.37301
G1 X73.549 Y86.31 E18.38703
G1 X74.002 Y85.688 E18.41263
G1 X74.516 Y85.117 E18.43818
G1 X75.087 Y84.601 E18.46378
G0 F6000 X75.052 Y85.159
G1 F1200 X75.632 Y84.687 E18.48865
G1 X76.26 Y84.28 E18.51354
G1 X76.927 Y83.942 E18.53841
G1 X77.627 Y83.677 E18.5633
G1 X78.351 Y83.489 E18.58818
G1 X79.091 Y83.378 E18.61307
G1 X79.751 Y83.347 E18.63505
G1 X109.643 Y83.347 E19.62926
G1 X110.39 Y83.387 E19.65414
G1 X111.128 Y83.506 E19.679
G1 X111.85 Y83.704 E19.7039
G1 X112.546 Y83.977 E19.72877
G1 X112.637 Y84.025 E19.73219
G1 X113.098 Y83.565 E19.75385
G1 X113.388 Y83.302 E19.76687
G1 X113.936 Y82.853 E19.79044
G1 X114.252 Y82.62 E19.80349
G1 X114.799 Y82.255 E19.82537
G1 X115.135 Y82.053 E19.83841
G1 X115.74 Y81.728 E19.86125
G1 X116.096 Y81.559 E19.87436
G1 X116.746 Y81.29 E19.89775
G1 X117.116 Y81.158 E19.91082
G1 X117.732 Y80.97 E19.93224
G1 X118.111 Y80.873 E19.94525
G1 X118.855 Y80.725 E19.97048
G1 X119.246 Y80.669 E19.98362
G1 X119.701 Y80.619 E19.99884
G1 X119.896 Y80.604 E20.00535
G1 X120.358 Y80.583 E20.02073
G1 X120.73 Y80.579 E20.0331
G1 X152.629 Y80.579 E21.09407
G1 X152.968 Y80.587 E21.10535
G1 X153.36 Y80.606 E21.1184
G1 X154.036 Y80.672 E21.14099
G1 X154.425 Y80.729 E21.15407
G1 X155.12 Y80.867 E21.17764
G1 X155.501 Y80.963 E21.1907
G1 X156.149 Y81.16 E21.21323
G1 X156.518 Y81.292 E21.22626
G1 X157.154 Y81.555 E21.24916
G1 X157.507 Y81.722 E21.26214
G1 X158.112 Y82.046 E21.28497
G1 X158.449 Y82.248 E21.29804
G1 X159.013 Y82.624 E21.32058
G1 X159.328 Y82.857 E21.33361
G1 X159.869 Y83.301 E21.35689
G1 X160.161 Y83.566 E21.37001
G1 X160.65 Y84.056 E21.39303
G1 X160.913 Y84.347 E21.40608
G1 X161.339 Y84.867 E21.42844
G1 X161.573 Y85.182 E21.44149
G1 X161.963 Y85.765 E21.46482
G1 X162.165 Y86.103 E21.47791
G1 X162.48 Y86.693 E21.50016
G1 X162.648 Y87.047 E21.51319
G1 X162.917 Y87.696 E21.53656
G1 X163.049 Y88.066 E21.54962
G1 X163.237 Y88.682 E21.57104
G1 X163.334 Y89.061 E21.58406
G1 X163.482 Y89.802 E21.60919
G1 X163.538 Y90.192 E21.62229
G1 X163.601 Y90.848 E21.64421
G1 X163.62 Y91.24 E21.65727
G1 X163.628 Y91.579 E21.66854
G1 X163.628 Y123.579 E22.73287
G1 X163.62 Y123.918 E22.74415
G1 X163.601 Y124.31 E22.7572
G1 X163.535 Y124.986 E22.77979
G1 X163.478 Y125.375 E22.79287
G1 X163.342 Y126.062 E22.81616
G1 X163.247 Y126.441 E22.82916
G1 X163.044 Y127.107 E22.85231
G1 X162.911 Y127.477 E22.86539
G1 X162.655 Y128.096 E22.88767
G1 X162.488 Y128.45 E22.90069
G1 X162.161 Y129.062 E22.92377
G1 X161.959 Y129.399 E22.93684
G1 X161.572 Y129.977 E22.95997
G1 X161.337 Y130.293 E22.97307
G1 X160.913 Y130.81 E22.99531
G1 X160.65 Y131.101 E23.00835
G1 X160.159 Y131.592 E23.03145
G1 X159.869 Y131.855 E23.04447
G1 X159.33 Y132.298 E23.06767
G1 X159.015 Y132.531 E23.08071
G1 X158.456 Y132.904 E23.10306
G1 X158.118 Y133.107 E23.11617
G1 X157.501 Y133.437 E23.13944
G1 X157.145 Y133.605 E23.15254
G1 X156.516 Y133.865 E23.17517
G1 X156.147 Y133.997 E23.18821
G1 X155.52 Y134.189 E23.21002
G1 X155.14 Y134.286 E23.22306
G1 X154.404 Y134.432 E23.24802
G1 X154.014 Y134.488 E23.26112
G1 X153.377 Y134.55 E23.28241
G1 X152.986 Y134.57 E23.29543
G1 X152.628 Y134.579 E23.30734
G1 X120.629 Y134.579 E24.37163
G1 X120.273 Y134.57 E24.38348
G1 X119.88 Y134.55 E24.39657
G1 X119.219 Y134.485 E24.41866
G1 X118.831 Y134.428 E24.4317
G1 X118.142 Y134.291 E24.45507
G1 X117.76 Y134.195 E24.46817
G1 X117.103 Y133.995 E24.49101
G1 X116.735 Y133.863 E24.50401
G1 X116.104 Y133.601 E24.52674
G1 X115.749 Y133.433 E24.5398
G1 X115.149 Y133.113 E24.56242
G1 X114.813 Y132.912 E24.57544
G1 X114.241 Y132.531 E24.5983
G1 X113.925 Y132.297 E24.61138
G1 X113.387 Y131.855 E24.63453
G1 X113.252 Y131.733 E24.64059
G1 X112.891 Y131.947 E24.65454
G1 X112.211 Y132.259 E24.67943
G1 X111.501 Y132.496 E24.70432
G1 X110.77 Y132.655 E24.7292
G1 X110.027 Y132.736 E24.75406
G1 X109.642 Y132.747 E24.76687
G1 X79.75 Y132.747 E25.76109
G1 X79.003 Y132.707 E25.78597
G1 X78.265 Y132.588 E25.81083
G1 X77.543 Y132.39 E25.83573
G1 X76.847 Y132.117 E25.8606
G1 X76.184 Y131.77 E25.88549
G1 X75.561 Y131.355 E25.91038
G1 X74.987 Y130.876 E25.93525
G1 X74.466 Y130.339 E25.96013
G1 X74.007 Y129.749 E25.985
G1 X73.612 Y129.113 E26.0099
G1 X73.144 Y128.839 E26.02793
G1 X72.543 Y128.395 E26.05279
G1 X71.992 Y127.889 E26.07767
G1 X71.498 Y127.327 E26.10256
G1 X71.067 Y126.715 E26.12745
G1 X70.704 Y126.061 E26.15233
G1 X70.412 Y125.372 E26.17722
G1 X70.196 Y124.656 E26.20209
G1 X70.058 Y123.921 E26.22697
G1 X69.996 Y122.994 E26.25787
G1 X69.996 Y93.102 E27.25208
G1 X70.036 Y92.355 E27.27696
G1 X70.155 Y91.617 E27.30182
G1 X70.353 Y90.895 E27.32672
G1 X70.626 Y90.199 E27.35159
G1 X70.973 Y89.536 E27.37648
G1 X71.388 Y88.913 E27.40138
G1 X71.867 Y88.339 E27.42624
G1 X72.404 Y87.818 E27.45113
G1 X72.994 Y87.359 E27.47599
G1 X73.625 Y86.967 E27.5007
G1 X73.656 Y86.905 E27.503
G1 X74.058 Y86.274 E27.52789
G1 X74.525 Y85.69 E27.55276
G1 X75.052 Y85.159 E27.57764
G0 F6000 X75.592 Y85.222
G1 F1200 X76.181 Y84.796 E27.60182
G1 X76.812 Y84.437 E27.62596
G1 X77.479 Y84.15 E27.65012
G1 X78.174 Y83.938 E27.67428
G1 X78.888 Y83.804 E27.69845
G1 X79.751 Y83.747 E27.72721
G1 X109.643 Y83.747 E28.72142
G1 X110.368 Y83.787 E28.74557
G1 X111.085 Y83.906 E28.76975
G1 X111.784 Y84.104 E28.79391
G1 X112.457 Y84.377 E28.81807
G1 X112.725 Y84.522 E28.8282
G1 X112.913 Y84.315 E28.8375
G1 X113.366 Y83.861 E28.85883
G1 X113.656 Y83.598 E28.87185
G1 X114.173 Y83.175 E28.89407
G1 X114.489 Y82.942 E28.90713
